X: 601
T: O Nancy Don't You Remember?
T: a anna ann ne nac mea.brai.g tu?
R:air
N:"Slow."
B:O'Neill's 601
Z:"Transcribed by John Walsh (walsh@math.ubc.ca)
M:3/4
L:1/8
%Q:80
K:A
E AG|F2 EF AG|F2E>D CE|Fd cB AG|A3 E AG|
F2 EF AG|F2 E>D CE|Fd cB AG|A3||
A/B/ cd|e>f ed cA|F2 E(c/d/) ec|A2 GA F>F|E3 c/d/ ec|
dB c/d/ e3/4d/4 cA|F2 E>D CE|Fd c>B AG|A3||


